public/library/stripe-text-dark.svg

<svg width="360" height="151" viewBox="0 0 360 151" fill="none" xmlns="http://www.w3.org/2000/svg">
<path fill-rule="evenodd" clip-rule="evenodd" d="M360 78.0002C360 52.4002 347.6 32.2002 323.9 32.2002C300.1 32.2002 285.7 52.4002 285.7 77.8002C285.7 107.9 302.7 123.1 327.1 123.1C339 123.1 348 120.4 354.8 116.6V96.6002C348 100 340.2 102.1 330.3 102.1C320.6 102.1 312 98.7002 310.9 86.9002H359.8C359.8 85.6002 360 80.4002 360 78.0002ZM310.6 68.5002C310.6 57.2002 317.5 52.5002 323.8 52.5002C329.9 52.5002 336.4 57.2002 336.4 68.5002H310.6Z" fill="white"/>
<path fill-rule="evenodd" clip-rule="evenodd" d="M247.1 32.2002C237.3 32.2002 231 36.8002 227.5 40.0002L226.2 33.8002H204.2V150.4L229.2 145.1L229.3 116.8C232.9 119.4 238.2 123.1 247 123.1C264.9 123.1 281.2 108.7 281.2 77.0002C281.1 48.0002 264.6 32.2002 247.1 32.2002ZM241.1 101.1C235.2 101.1 231.7 99.0002 229.3 96.4002L229.2 59.3002C231.8 56.4002 235.4 54.4002 241.1 54.4002C250.2 54.4002 256.5 64.6002 256.5 77.7002C256.5 91.1002 250.3 101.1 241.1 101.1Z" fill="white"/>
<path fill-rule="evenodd" clip-rule="evenodd" d="M169.8 26.3001L194.9 20.9001V0.600098L169.8 5.9001V26.3001Z" fill="white"/>
<path d="M194.9 33.9001H169.8V121.4H194.9V33.9001Z" fill="white"/>
<path fill-rule="evenodd" clip-rule="evenodd" d="M142.9 41.3001L141.3 33.9001H119.7V121.4H144.7V62.1001C150.6 54.4001 160.6 55.8001 163.7 56.9001V33.9001C160.5 32.7001 148.8 30.5001 142.9 41.3001Z" fill="white"/>
<path fill-rule="evenodd" clip-rule="evenodd" d="M92.8999 12.2002L68.4999 17.4002L68.3999 97.5002C68.3999 112.3 79.4999 123.2 94.2999 123.2C102.5 123.2 108.5 121.7 111.8 119.9V99.6002C108.6 100.9 92.7999 105.5 92.7999 90.7002V55.2002H111.8V33.9002H92.7999L92.8999 12.2002Z" fill="white"/>
<path fill-rule="evenodd" clip-rule="evenodd" d="M25.3 59.3002C25.3 55.4002 28.5 53.9002 33.8 53.9002C41.4 53.9002 51 56.2002 58.6 60.3002V36.8002C50.3 33.5002 42.1 32.2002 33.8 32.2002C13.5 32.2002 0 42.8002 0 60.5002C0 88.1002 38 83.7002 38 95.6002C38 100.2 34 101.7 28.4 101.7C20.1 101.7 9.5 98.3002 1.1 93.7002V117.5C10.4 121.5 19.8 123.2 28.4 123.2C49.2 123.2 63.5 112.9 63.5 95.0002C63.4 65.2002 25.3 70.5002 25.3 59.3002Z" fill="white"/>
</svg>

<svg xmlns="http://www.w3.org/2000/svg" width="360" height="151" fill="none" viewBox="0 0 360 151"><path fill="#fff" fill-rule="evenodd" d="M360 78c0-25.6-12.4-45.8-36.1-45.8-23.8 0-38.2 20.2-38.2 45.6 0 30.1 17 45.3 41.4 45.3 11.9 0 20.9-2.7 27.7-6.5v-20c-6.8 3.4-14.6 5.5-24.5 5.5-9.7 0-18.3-3.4-19.4-15.2h48.9c0-1.3.2-6.5.2-8.9m-49.4-9.5c0-11.3 6.9-16 13.2-16 6.1 0 12.6 4.7 12.6 16zM247.1 32.2c-9.8 0-16.1 4.6-19.6 7.8l-1.3-6.2h-22v116.6l25-5.3.1-28.3c3.6 2.6 8.9 6.3 17.7 6.3 17.9 0 34.2-14.4 34.2-46.1-.1-29-16.6-44.8-34.1-44.8m-6 68.9c-5.9 0-9.4-2.1-11.8-4.7l-.1-37.1c2.6-2.9 6.2-4.9 11.9-4.9 9.1 0 15.4 10.2 15.4 23.3 0 13.4-6.2 23.4-15.4 23.4M169.8 26.3l25.1-5.4V.6l-25.1 5.3z" clip-rule="evenodd"/><path fill="#fff" d="M194.9 33.9h-25.1v87.5h25.1z"/><path fill="#fff" fill-rule="evenodd" d="m142.9 41.3-1.6-7.4h-21.6v87.5h25V62.1c5.9-7.7 15.9-6.3 19-5.2v-23c-3.2-1.2-14.9-3.4-20.8 7.4M92.9 12.2l-24.4 5.2-.1 80.1c0 14.8 11.1 25.7 25.9 25.7 8.2 0 14.2-1.5 17.5-3.3V99.6c-3.2 1.3-19 5.9-19-8.9V55.2h19V33.9h-19zM25.3 59.3c0-3.9 3.2-5.4 8.5-5.4 7.6 0 17.2 2.3 24.8 6.4V36.8c-8.3-3.3-16.5-4.6-24.8-4.6C13.5 32.2 0 42.8 0 60.5c0 27.6 38 23.2 38 35.1 0 4.6-4 6.1-9.6 6.1-8.3 0-18.9-3.4-27.3-8v23.8c9.3 4 18.7 5.7 27.3 5.7 20.8 0 35.1-10.3 35.1-28.2-.1-29.8-38.2-24.5-38.2-35.7" clip-rule="evenodd"/></svg>
